assets/img/braze_icons/log-in-03-alt.svg

<svg fill="none" height="24" viewBox="0 0 24 24" width="24" xmlns="http://www.w3.org/2000/svg"><g fill="#801ed7"><path d="m17.7206 1.48042c.623-.0293 1.203.00876 1.7573.22919.8525.33894 1.5625.96058 2.0111 1.76073.2918.52038.4062 1.09028.4595 1.7116.0515.6016.0515 1.34746.0515 2.25624v9.12382c0 .9088 0 1.6545-.0515 2.2561-.0533.6213-.1677 1.1912-.4595 1.7116-.4486.8001-1.1586 1.4218-2.0111 1.7607-.5543.2204-1.1343.2585-1.7573.2292-.6031-.0284-1.3423-.127-2.2432-.2471l-6.63375-.8845-.00219-.0003-.05097-.0068c-.29866-.0397-.52092-.0693-.72106-.1172-1.65261-.3953-2.87509-1.7916-3.04852-3.482-.02101-.2047-.02097-.429-.0209-.7304v-.4513c0-.5601 0-.8401.10899-1.054.09587-.1882.24885-.3411.43702-.437.21391-.109.49393-.109 1.05399-.109h1.44039c.37062 0 .55592 0 .66086.052.11549.0573.15599.0963.21745.2096.05584.103.06501.3518.08334.8495.02689.7303.3191 1.4527.87663 2.0102 1.17162 1.1716 3.07102 1.1716 4.24262 0l4-4c1.1716-1.1716 1.1716-3.071 0-4.24262l-4-4c-1.1716-1.17157-3.071-1.17157-4.24262 0-.55753.55752-.84974 1.2799-.87663 2.01022-.01833.4977-.0275.74655-.08334.8495-.06146.1133-.10196.15234-.21745.20958-.10494.05202-.29024.05202-.66086.05202h-1.44039c-.56006 0-.84008 0-1.05399-.10899-.18817-.09588-.34115-.24886-.43702-.43702-.10899-.21391-.10899-.49394-.10899-1.05399v-.45129c-.00007-.3014-.00011-.52567.02089-.73043.17344-1.69035 1.39592-3.08665 3.04853-3.48197.20018-.04788.42249-.07748.72126-.11725l6.68671-.89155c.9009-.12013 1.6401-.21871 2.2432-.24709z"/><path d="m11.2929 7.29289c.3905-.39052 1.0237-.39052 1.4142 0l4 4.00001c.3905.3905.3905 1.0237 0 1.4142l-4 4c-.3905.3905-1.0237.3905-1.4142 0s-.3905-1.0237 0-1.4142l2.2929-2.2929h-10.5858c-.55228 0-1-.4477-1-1s.44772-1 1-1h10.5858l-2.2929-2.29289c-.3905-.39053-.3905-1.02369 0-1.41422z"/></g></svg>

<svg width="24" height="24" viewBox="0 0 24 24" fill="none" xmlns="http://www.w3.org/2000/svg">
<path d="M17.7206 1.48042C18.3436 1.45112 18.9236 1.48918 19.4779 1.70961C20.3304 2.04855 21.0404 2.67019 21.489 3.47034C21.7808 3.99072 21.8952 4.56062 21.9485 5.18194C22 5.78354 22 6.5294 22 7.43818V16.562C22 17.4708 22 18.2165 21.9485 18.8181C21.8952 19.4394 21.7808 20.0093 21.489 20.5297C21.0404 21.3298 20.3304 21.9515 19.4779 22.2904C18.9236 22.5108 18.3436 22.5489 17.7206 22.5196C17.1175 22.4912 16.3783 22.3926 15.4774 22.2725L8.84365 21.388L8.84146 21.3877L8.79049 21.3809C8.49183 21.3412 8.26957 21.3116 8.06943 21.2637C6.41682 20.8684 5.19434 19.4721 5.02091 17.7817C4.9999 17.577 4.99994 17.3527 5.00001 17.0513V16.6C5.00001 16.0399 5.00001 15.7599 5.109 15.546C5.20487 15.3578 5.35785 15.2049 5.54602 15.109C5.75993 15 6.03995 15 6.60001 15H8.0404C8.41102 15 8.59632 15 8.70126 15.052C8.81675 15.1093 8.85725 15.1483 8.91871 15.2616C8.97455 15.3646 8.98372 15.6134 9.00205 16.1111C9.02894 16.8414 9.32115 17.5638 9.87868 18.1213C11.0503 19.2929 12.9497 19.2929 14.1213 18.1213L18.1213 14.1213C19.2929 12.9497 19.2929 11.0503 18.1213 9.87868L14.1213 5.87868C12.9497 4.70711 11.0503 4.70711 9.87868 5.87868C9.32115 6.4362 9.02894 7.15858 9.00205 7.8889C8.98372 8.3866 8.97455 8.63545 8.91871 8.7384C8.85725 8.8517 8.81675 8.89074 8.70126 8.94798C8.59632 9 8.41102 9 8.0404 9H6.60001C6.03995 9 5.75993 9 5.54602 8.89101C5.35785 8.79513 5.20487 8.64215 5.109 8.45399C5.00001 8.24008 5.00001 7.96005 5.00001 7.4V6.94871C4.99994 6.64731 4.9999 6.42304 5.0209 6.21828C5.19434 4.52793 6.41682 3.13163 8.06943 2.73631C8.26961 2.68843 8.49192 2.65883 8.79069 2.61906L15.4774 1.72751C16.3783 1.60738 17.1175 1.5088 17.7206 1.48042Z" fill="#801ED7"/>
<path d="M11.2929 7.29289C11.6834 6.90237 12.3166 6.90237 12.7071 7.29289L16.7071 11.2929C17.0976 11.6834 17.0976 12.3166 16.7071 12.7071L12.7071 16.7071C12.3166 17.0976 11.6834 17.0976 11.2929 16.7071C10.9024 16.3166 10.9024 15.6834 11.2929 15.2929L13.5858 13H3C2.44772 13 2 12.5523 2 12C2 11.4477 2.44772 11 3 11H13.5858L11.2929 8.70711C10.9024 8.31658 10.9024 7.68342 11.2929 7.29289Z" fill="#801ED7"/>
</svg>
